X: 1
T: Sl\"angpolska efter Leif Alpsj\"o
Z: John Chambers <jc@trillian.mit.edu>
M: 3/4
L: 1/8
K: D
A \
|: "D(A7)"AB AG FE \
| "D"DF Ad f-f \
| "A7"fa ag ec \
|1,3 "D"df ed cB \
:|2,4 "D"d4 zA :|
|: "D"A{Bc}d d2 dB \
| BA {^g}a2 A2 \
| A{Bc}d d2 dB \
| BA {c}d2 F2 \
| "G"GA B2 AG \
| "D"FA df a-a \
| "A7"ab ag ec \
| "D"d6 :|

%%sep 1 1 500

